X:1
T:The Well-Tempered Clavier Book II - XIII
T:BWV 882    (A = 415 Hz)
T:J. S. Bach
%%score { ( 1 4 ) | ( 2 3 ) }
L:1/8
M:3/4
K:F#
V:1 treble 
V:4 treble 
V:2 bass 
V:3 bass 
V:1
"^Praeludium" c3/2(3B/4A/4G/4{G} F3 z/ f/ | e3/2f/4g/4 c3 z/ f/ | B>d G>B E>c | %3
 A/c/F/G/ A/F/c/A/ F/A/G/F/ | G/c/E/F/ G/F/c/G/ E/G/F/E/ | F/A/D/E/ F/D/A/F/ D/F/E/D/ | %6
 E/G/C/D/ E/C/G/E/ C/B/A/G/ | A/c/F/G/ A/F/c/A/ F/A/G/F/ | D/A/D/E/ ^^F/D/A/F/ D/c/^B/A/ | %9
 ^B/d/G/A/ B/G/d/B/ G/A/G/F/ | E/^B/E/^^F/ ^^G/E/B/G/ E/d/c/B/ | c>A f2- f3/2(3e/4d/4c/4 | %12
 d>^B g2- g3/2(3f/4e/4d/4 | e>c a3/2(3g/4f/4e/4 d>f |{c} ^B3/2(3d/4e/4f/4 g>B c>G | %15
 A3/2(3G/4F/4E/4 D>c G>^B | c/G/c/d/ e/c/g/e/ c/e/d/c/ | d/g/G/A/ ^B/G/d/B/ G/f/e/d/ | %18
 c/G/c/d/ e/c/g/e/ c/b/a/g/ | f3/2(3B/4A/4G/4 F3 z/ f/ | e3/2f/4g/4 c2- c/d/c/B/ | %21
 B/4A/4B/4A/4B/4A/4G/4F/4 =e>c A>e | d/f/B/c/ d/B/f/d/ B/d/c/B/ | c/f/A/B/ c/A/f/c/ A/c/B/A/ | %24
 B/d/G/A/ B/G/d/B/ G/B/A/G/ | A>c d/4c/4d/4c/4d/4c/4^B/4c/4 d/4c/4d/4c/4d/4c/4B/4c/4 | %26
 G>c d/4c/4d/4c/4d/4c/4^B/4c/4 d/4c/4d/4c/4d/4c/4B/4c/4 | F>c a>c c/4^B/4c/4B/4c/4B/4c/ | %28
 c3 z/4 c/4d/4e/4 f/4e/4f/4e/4f/4e/4d/4e/4 | f/c/F/G/ A/F/c/A/ =E/G/F/E/ | %30
 D3 z/4 d/4^^c/4d/4 e/4d/4e/4d/4e/4d/4c/4d/4 | e/B/E/F/ G/E/B/G/ D/F/E/D/ | %32
 ^^C3/2D/4E/4 A,2- A,/G/F/E/ | D/F/A/F/ d/A/f/d/ A/d/^^c/^B/ | ^^c/e/A/^B/ c/A/g/e/ c/=b/a/g/ | %35
 f/a/d/e/ f/d/a/f/ d/f/e/d/ | e/a/A/^B/ ^^c/A/e/c/ A/g/f/e/ | %37
 f>^^c d3/2(3F/4E/4D/4 A/4^^G/4A/4G/4A/4G/4^^F/4G/4 | A/E/A/^B/ c/A/e/c/ a/g/f/e/ | %39
 d/^^c/d z z/4 d/4e/4^^f/4 g>g | g/e/^^c/d/ e/c/G/B/{D} ^^C>B | A3/2(3G/4F/4E/4 D3 z/ d/ | %42
{d} ^^c3/2(3d/4e/4f/4 g3 z/ a/ |{a} g>e d/4^^c/4B/4c/4d/4c/4d/4c/4 d/4c/4d/4c/4d | %44
 d/A/F/G/ A/F/d/A/ F/G/F/E/ | ^^F/d/F/G/ A/F/d/A/ F/A/G/F/ | G/d/G/A/ B/G/d/B/ G/B/A/G/ | %47
 A/d/A/B/ c/A/=e/c/ A/c/B/A/ | B>^^F G>B d3/2(3g/4f/4e/4 | f>^^F G>^B d3/2(3f/4e/4d/4 | %50
 e>^^F G>c e3/2(3G/4^F/4E/4 | F>A D>c c/4B/4c/4B/4c/4B/4A/4B/4 | c/G/E/F/ G/E/c/G/ E/F/E/D/ | %53
 C/G/E/F/ G/E/c/G/ E/G/F/E/ | F/c/F/G/ A/F/c/A/ F/A/G/F/ | C/G/E/F/ G/E/c/G/ E/G/F/E/ | %56
 A/c/4B/4A/4G/4F/4E/4 F3 z/ f/ | e3/2f/4g/4 c3 z/ f/ | B>d G>B E>c | A/c/F/G/ A/F/c/A/ F/=e/d/c/ | %60
 d/f/B/c/ d/B/f/d/ A/c/B/A/ | G/d/G/A/ ^B/G/d/B/ G/f/e/d/ | e/g/c/d/ e/c/g/e/ =B/d/c/B/ | %63
 A/e/A/^B/ ^^c/A/e/c/ A/g/f/e/ | f>d b2- b3/2(3a/4g/4f/4 | g>b c2- c3/2(6:4:4(1:1:2d/8e/8f/4g/4 | %66
 a>g f/4e/4f/4e/4f/4e/4f/4e/4 f/4e/4f/4e/4f | f/a/c/e/ f/c/a/f/ c/g/f/e/ | %68
 f/c/A/B/ c/A/f/c/ A/B/A/G/ | F/=A/^B,/E/ F/B,/A/F/ B,/G/F/E/ | F/=A/c/B/ A/c/F/A/ c/A/c/e/ | %71
 f/=a/d/e/ f/d/a/f/ d/f/e/d/ | [eg]2 z z/ e/ f3/4e/8d/8c/4B/4A/4G/4 | %73
 F>d F2- F/4E/4F/4E/4F/4E/4F/ | [A,CF]6 | z6 |[M:2/2]"^Fuga" z4 z4 | z4 z4 | z4 z4 | z4 z4 | %80
 c/4^B/4c/4B/4c/4B/4c/4B/4 c/4B/4c/4B/4 A/B/ c2 z2 | G2 A2 B3 A/G/ | F^EFG A^BcA | %83
 d2 F2 G/4F/4G/4F/4G/4F/4G/4F/4 ED | C2 B2 B2 A2 | z2 =A2 A2 G2 | z2 GA B2 D2 | E4 FEFG | %88
 AGAF D2 G2- | GFGE FA^B^^c | defd e4 | ^^f4 g2 dc | B2 =e2- e2 dc | d2 g2- gfed | cBcA F2 B2- | %95
 BABG ABcd | ef/=f/de ^f2 z2 | c2 d2 =e3 d/c/ | BABc defd | g2 B2 c/4B/4c/4B/4c/4B/4c/4B/4 A2 | %100
 f2 A2 B/4A/4B/4A/4B/4A/4B/4A/4 G2 | e2 G2 A/4G/4A/4G/4A/4G/4A/4G/4 F2 | z2 B2 B2 A2 | %103
 z2 A2 A2 G2 | g2 ^B2 c/4=B/4c/4B/4c/4B/4c/4B/4 A2 | ^^f2 A2 B/4A/4B/4A/4B/4A/4B/4A/4 G2 | %106
 z2 c2 c2 ^B2 | z2 ^B2 B2 A2 | dc d2 G3 A | B2 c2 F3 G | AGA^B c2 A2 | ^B4 c2 z2 | z4 z2 cd | %113
 =edfc BABc | dc=eG F2 B2- | BAGg cefa | d/4^^c/4d/4c/4d/4c/4d/4c/4 d/4c/4d/4c/4 ^B/c/ d2 z2 | %117
 A2 ^B2 c3 B/A/ | G^^FGA ^B^^cdB | e2 G2 A/4G/4A/4G/4A/4G/4A/4G/4 FE | F2 G2 E4 | ^^F4 G4 | %122
 z2 =e2- e2 dc | d2 g2- gf=fd | c^Bce f=B b2- | babg a2 f2 | b3 f g4 | a4 b2 dB | cd =e2 e2 d2 | %129
 z2 =d2 d2 c2 | z2 cd =e4- | eBAc- cFBA | B2 B2 B2 A2 | z2 A2 A2 G2 | =e2 G2 G2 F2 | d2 F2 F2 ^E2 | %136
 z2 c2 c2 ^B2 | z2 ^B2 B2 A2 | f2 A2 A2 G2 | e2 G2 G2 F2 | z2 B2 B2 A2 | z2 =A2 A2 G2 | %142
 z2 G2 F2 B2- | B2 AG G/4F/4G/4F/4G/4F/4G/4F/4 z2 | z4 z4 | z4 z4 | z4 z4 | z4 z4 | z4 z4 | z4 z4 | %150
 z4 z4 | z4 z4 | f/4e/4f/4e/4f/4e/4f/4e/4 f/4e/4f/4e/4 d/e/ f2 z2 | c2 d2 =e3 d/c/ | BABc defd | %155
 g2 B2 c/4B/4c/4B/4c/4B/4c/4B/4 A2 | a2 c2 d/4c/4d/4c/4d/4c/4d/4c/4 B2 | b2 d2 d2 cd | %158
 efg=f ^f3 g | e3 f !fermata!f4 |] %160
V:2
 F,>G, A,>G, A,>F, | C>B, A,>D C>D | G,>A, B,>G, C>C, | F,>C C>C A,>C | =F,>C C>C G,>C | %5
 D,>C C>C F,>^B, | C,3/2G,/4A,/4 B,>G, E,>C, | F,>C, F,,2 z2 | ^^F,3/2A,/4^B,/4 C>A, F,>D, | %9
 G,>D, G,,2 z2 | ^^G,3/2^B,/4C/4 D>B, G,>E, | A,2- A,3/2(3A,/4^B,/4C/4 D>F | %12
 ^B,2- B,3/2(3C/4B,/4A,/4 B,>G, | C/C,/D,/E,/ F,/F,,/F,/E,/ F,/F,,/F,/E,/ | %14
 F,2- F,3/2(3D,/4E,/4F,/4 E,3/2(3C,/4D,/4E,/4 | F,>D, G,3/2(3A,/4G,/4F,/4 G,>G,, | %16
 C,3/2(3E,/4D,/4C,/4 G,3 z/ C/ | ^B,3/2C/4D/4 G,2- G,/A,/G,/F,/ | E,3/2D,/4C,/4 B,>G, E,>C | %19
 A,/C/F,/G,/ A,/F,/C/A,/ F,/A,/G,/F,/ | G,/C/C,/D,/ E,/C,/G,/E,/ C,/B,/A,/G,/ | %21
 F,/C,/F,/G,/ A,/F,/C/A,/ F,/=E/D/C/ | B,>F, F,>B, D>F, | A,>F, F,>A, C>F, | G,>F, F,>G, B,>E, | %25
 F,/C/F,/G,/ A,/F,/C/A,/ F,/A,/G,/F,/ | E,/C/E,/F,/ G,/E,/C/G,/ E,/G,/F,/E,/ | %27
 D,/C/D,/E,/ F,/D,/C/F,/ D,/F,/E,/D,/ | C,/C/C,/D,/ E,/C,/G,/E,/ B,,/D,/C,/B,,/ | %29
 A,,3 z/4 F,/4G,/4A,/4 B,/4A,/4B,/4A,/4B,/4A,/4G,/4A,/4 | %30
 B,/F,/B,,/C,/ D,/B,,/F,/D,/ A,,/C,/B,,/A,,/ | %31
 G,,3 z/4 G,/4^^F,/4G,/4 A,/4^^G,/4A,/4G,/4A,/4G,/4F,/4G,/4 | %32
 A,/E,/A,,/^B,,/ ^^C,/A,,/E,/C,/ G,,/=B,,/A,,/G,,/ | F,,>A, A,>F, F,>D, | E,,>A, A,>E, E,>^^C, | %35
 D,,>A, A,>D, D,>^B,, | ^^C,,>A, A,>^^C, C,>A,, | D,/A,/D,/E,/ F,/D,/A,/F,/ D,/F,/E,/D,/ | %38
 C,/A,/C,/D,/ E,/C,/A,/E,/ C,/E,/D,/C,/ | B,,/A,/B,,/C,/ D,/B,,/G,/D,/ B,,/D,/C,/B,,/ | %40
 A,,/A,/A,,/^B,,/ ^^C,/A,,/E,/C,/ G,,/=B,,/A,,/G,,/ | F,,/A,,/D,/E,/ F,/D,/F,/G,/ A,/F,/B,/B,/ | %42
 B,2- B,3/2(3A,/4G,/4F,/4 E,>^^C | D>G, A,3/2(3B,/4A,/4G,/4 A,>A,, | D,>D D>D A,>D | %45
 C,>D D>D A,>D | B,,>D D>D B,>D | ^^F,>D D>D C>D | G,/D,/G,,/A,,/ B,,/G,,/D,/B,,/ G,/C,/^B,,/A,,/ | %49
 ^B,,/G,/B,,/C,/ D,/B,,/G,/D,/ B,,/D,/C,/B,,/ | C,/G,/C,/D,/ =F,/C,/G,/F,/ C,/F,/D,/C,/ | %51
 D,/G,/D,/E,/ F,/D,/A,/F,/ D,/F,/E,/D,/ | E,/G,/C/G,/ E,/G,/C,/E,/ G,/C,/G,/A,/ | %53
 B,3/2(3C/4B,/4A,/4 B,2- B,3/2(3G,/4A,/4B,/4 | A,/F,/A,/G,/ F,/A,/C,/F,/ A,/F,/G,/A,/ | %55
 E,>C C,3/2(3C,/4D,/4E,/4 F,/4E,/4F,/4E,/4F,/4E,/4D,/4E,/4 | F,>G, A,>G, A,>F, | C>B, A,>D C>D | %58
 G,>A, B,>G, C>C, | F,3/2=E,/4D,/4 E,>C, A,,>F,, | B,,>F, B,2 z2 | ^B,,3/2D,/4E,/4 F,>D, B,,>G,, | %62
 C,>G, C2 z2 | ^^C,3/2E,/4F,/4 G,>E, C,>A,, | D,2- D,3/2(3D,/4E,/4F,/4 G,>B, | %65
 E,2- E,3/2(3F,/4E,/4D,/4 E,>C, | F,>B, C3/2(3G,/4A,/4B,/4 C,>B, | F,>C C>C A,>C | %68
 =E,>C C>E, E,>D, | D,>=A, A,>A, F,>A, | C,>F, F,>C, C,>^B,, | ^B,,>^B, B,>D G,>F, | %72
 E,2 z z/ B,/ A, z | z z/ A,/ G,>A, B,2 | F,,6 | z6 |[M:2/2] z4 z4 | z4 z4 | z4 z4 | z4 z4 | %80
 z4 z4 | z4 z4 | z4 z4 | z4 z4 | F,/4E,/4F,/4E,/4F,/4E,/4F,/4E,/4 F,/4E,/4F,/4E,/4 D,/E,/ F,2 z2 | %85
 C,2 D,2 =E,3 D,/C,/ | B,,A,,B,,C, D,^E,F,D, | G,2 B,,2 B,,2 A,,G,, | F,,2 F,2- F,2 E,D, | %89
 E,2 A,,2 D,,2 D,2- | D,C,D,B,, G,,2 C,2- | C,B,,C,A,, B,,D,E,^^F, | G,2 C2 A,4 | ^B,4 C2 =B,2 | %94
 A,4- A,2 G,F, | G,2 C2 F,2 =F,D, | C,2 B,2 B,2 A,2 | z2 =A,2 A,2 G,2 | z2 G,A, B,2 D,2 | %99
 E,4 F,E,F,G, | A,F,D,F, B,A,B,G, | ^^C^B,CA, DA,D,^^C, | D,B,,G,,B,, =E,D,E,C, | %103
 ^^F,E,F,D, G,F,G,A, | ^B,A,B,G, CB,CA, | ^^DCD^B, EB,E,^^D, | E,C,A,,C, F,E,F,D, | %107
 ^^G,^^F,G,E, A,G,A,^B, | C/4^B,/4C/4B,/4C/4B,/4C/4B,/4 C/4B,/4C/4B,/4 A,/B,/ C2 z2 | %109
 G,2 A,2 B,3 A,/G,/ | F,^E,F,G, A,^B,CA, | D2 F,2 F,2 E,D, | %112
 C,E,G,B, C/4B,/4C/4B,/4C/4B,/4C/4B,/4 A,2 | z2 =A,2 A,2 G,2 | z2 G,A, B,2 D,2 | E,4 F,3 F, | %116
 E,D,E,A,, D,^^C,D,E, | F,D,^^G,,^^G, A,G,A,^B, | C3 ^B,/A,/ G,3 F, | E,D,E,A, D,4 | %120
 z2 B,,2- B,,2 A,,G,, | A,,2 D,,2 G,,2 G,2- | G,^^F,G,=E, C,2 ^F,2- | F,E,F,D, E,G,A,^B, | %124
[K:treble] C4 D4 | E4 F2 =E2 | D4- D2[K:bass] CB, | C2 F,2 B,4 | z4 z A,B,C | DB,E,E FE,F,G, | %130
 =A,3 G,/F,/ C2 G,2 | A,2 F,2 B,2 B,,C, | D,B,,G,,B,, =E,D,E,C, | ^^F,E,F,D, G,F,G,F, | %134
 G,=E,C,E, =A,G,A,F, | ^B,A,B,G, CG,C,D, | =F,C,A,,C, ^F,E,F,D, | ^^G,^^F,G,E, A,G,A,G, | %138
 A,F,D,F, B,A,B,G, | ^^C^B,CA, DA,D,E, | %140
 F,/4E,/4F,/4E,/4F,/4E,/4F,/4E,/4 F,/4E,/4F,/4E,/4 D,/E,/ F,2 z2 | C,2 D,2 =E,3 D,/C,/ | %142
 B,,A,,B,,C, D,^E,F,D, | G,2 B,,2 B,,2 A,,2 | A,2 C,2 D,/4C,/4D,/4C,/4D,/4C,/4D,/4C,/4 B,,2 | %145
 B,2 D,2 D,2 C,D, | E,/4D,/4E,/4D,/4E,/4D,/4E,/4D,/4 E,/4D,/4E,/4D,/4 C,/D,/ E,G,A,B, | %147
 C=E,D,C, D,F,G,A, | B,C/B,/A,B, CDEF | =FDC^B, CC,C=B, | A,B,CA, B,B,,B,A, | G,A,B,G, E,F,G,=F, | %152
 C,=F,G,C ^F,E,F,G, | =A,F,^B,,^B, CB,CD | =E=E,D,C, B,,C,B,,A,, | G,,F,,G,,C, F,,E,,F,,A,, | %156
 C,A,,F,C, D,C,D,F, | G,D,B,G, E,D,E,G, | CG,EC D2 B,2 | C2 C,2 !fermata!F,,4 |] %160
V:3
 x6 | x6 | x6 | x6 | x6 | x6 | x6 | x6 | x6 | x6 | x6 | x6 | x6 | x6 | x6 | x6 | x6 | x6 | x6 | %19
 x6 | x6 | x6 | x6 | x6 | x6 | x6 | x6 | x6 | x6 | x6 | x6 | x6 | x6 | x6 | x6 | x6 | x6 | x6 | %38
 x6 | x6 | x6 | x6 | x6 | x6 | x6 | x6 | x6 | x6 | x6 | x6 | x6 | x6 | x6 | x6 | x6 | x6 | x6 | %57
 x6 | x6 | x6 | x6 | x6 | x6 | x6 | x6 | x6 | z4 C,2 | x6 | x6 | x6 | x6 | x6 | B,,2 z2 z2 | %73
 z z/ ^B,,/ C,4 | x6 | x6 |[M:2/2] x8 | x8 | x8 | x8 | x8 | x8 | x8 | x8 | x8 | x8 | x8 | x8 | x8 | %89
 x8 | x8 | x8 | x8 | x8 | x8 | x8 | x8 | x8 | x8 | x8 | x8 | x8 | x8 | x8 | x8 | x8 | x8 | x8 | %108
 x8 | x8 | x8 | x8 | x8 | x8 | x8 | x8 | x8 | x8 | x8 | x8 | x8 | x8 | x8 | x8 |[K:treble] x8 | %125
 x8 | x6[K:bass] x2 | x8 | x8 | x8 | x8 | x8 | x8 | x8 | x8 | x8 | x8 | x8 | x8 | x8 | x8 | x8 | %142
 x8 | x8 | x8 | x8 | x8 | x8 | x8 | x8 | x8 | x8 | x8 | x8 | x8 | x8 | x8 | x8 | x8 | x8 |] %160
V:4
 x6 | x6 | x6 | x6 | x6 | x6 | x6 | x6 | x6 | x6 | x6 | x6 | x6 | x6 | x6 | x6 | x6 | x6 | x6 | %19
 x6 | x6 | x6 | x6 | x6 | x6 | x6 | x6 | x6 | x6 | x6 | x6 | x6 | x6 | x6 | x6 | x6 | x6 | x6 | %38
 x6 | x6 | x6 | x6 | x6 | x6 | x6 | x6 | x6 | x6 | x6 | x6 | x6 | x6 | x6 | x6 | x6 | x6 | x6 | %57
 x6 | x6 | x6 | x6 | x6 | x6 | x6 | x6 | x6 | x6 |[I:staff +1] F,3/2[I:staff -1] z/ z2 z2 | x6 | %69
 x6 | x6 | x6 | [Gc]2 z z/ [Gc]/ [Gc]/ z/ z | z z/ F/ C4 | x6 | x6 | %76
[M:2/2] F/4E/4F/4E/4F/4E/4F/4E/4 F/4E/4F/4E/4 D/E/ F2 z2 | C2 D2 =E3 D/C/ | B,A,B,C DEFD | %79
 G2[I:staff +1] B,2 C/4B,/4C/4B,/4C/4B,/4C/4B,/4 A,G, | F,2[I:staff -1] F2 F2 E2 | z2 =E2 E2 D2 | %82
 z2 DE F2 A,2 | C/4^B,/4C/4B,/4C/4B,/4C/4B,/4 C/4B,/4C/4B,/4C/4B,/4C/4B,/4 C2 G,2 | C4- C3 D | %85
 =E2 F2 B,3 C | D2 E2 F2 B,2- | B,2[I:staff +1] A,G, F,4 |[I:staff -1] z2 C2 ^B,4 | ^^C4 D4 | %90
 z2 B2- B2 AG | A2 d2- dcBA | G^^FG=E C2[I:staff +1] ^F2- | F^EFD E2 =C2 | F2 =E2[I:staff -1] D4 | %95
 ^E4 F2 z2 | G4[I:staff +1] C3 C | F4 B,3 B, | =E4[I:staff -1] D4 | C4- C4 | z2 F2 F2 E2 | %101
 z2 E2 E2 D2 | B2 D2 D2 C2 | A2 C2 C2 ^B,2 | z2 G2 G2 ^^F2 | z2 ^^F2 F2 E2 | c2 E2 E2 D2 | %107
 ^B2 D2 D2 C2 | z2 F2 F2 E2 | z2 =E2 E2 D2 | z2 D2 C2 F2- | F2 ED GFG=B | %112
 F/4E/4F/4E/4F/4E/4F/4E/4 F/4E/4F/4E/4 D/E/ F2 z2 |[I:staff +1] C2 D2 =E3 D/C/ | %114
 B,^A,B,C D[I:staff -1]^EFD | G2[I:staff +1] B,2 C/4B,/4C/4B,/4C/4B,/4C/4B,/4 A,2 | %116
[I:staff -1] z2 G2 G2 ^^F2 | z2 F2 F2 E2 | z2 E^F G2[I:staff +1] ^B,2 | ^^C4 FA,^B,C | %120
[I:staff -1] D^^CDB, G,2 ^C2 | CB,CA, B,DE^^F | GABG A4 | ^B4 c2 GF |[I:staff +1] E2 A2- A2 GF | %125
 G2 c2- cBAG | F=EFA BE[I:staff -1] =e2- | ed=ec dBFG | %128
 B/4A/4B/4A/4B/4A/4B/4A/4 B/4A/4B/4A/4 G/A/ B2 z2 | F2 G2 =A3 G/F/ | =EDEF G^ABG | c2 =E2 E2 D2 | %132
 B2 D2 D2 C2 | A2 C2 C2 B,2 | z2 =E2 E2 D2 | z2 D2 D2 C2 | c2 E2 E2 D2 | ^B2 D2 D2 C2 | %138
 z2 F2 F2 E2 | z2 E2 E2 C2 | GF G2 C3 D | =E2 F2 B,3 C | DCDE F2 D2 | E4 FEFA | cAF=E DCDF | %145
 GABF ^EDEG | ^Bc/B/A=B c2 z2 | G2 A2 B3 A/G/ | FEFG A^BcA | d2 F2 G/4F/4G/4F/4G/4F/4G/4F/4 E2 | %150
 c2 =E2 F/4E/4F/4E/4F/4E/4F/4E/4 D2 | B2 D2 G/4F/4G/4F/4G/4F/4G/4F/4 E2 | z2 B2 B2 A2 | %153
 z2 =A2 A2 G2 | z2 G^A B2 z2 | e4 f4 | z2 A2 A2 B2 | z2 B2 ^B2 c2 | z2 B2 A3 B | G3 A A4 |] %160

